X: 132
T: REEL: Glentaun
T: Glountane / Gleanntán
C: C: Trad.; S: Denis Murphy & Julia Clifford
C: Set Leaders: Anton, Oliushka, Sophie
Z: Anton Zille ed. arr.; Bregolas at The Session
N: https://thesession.org/members/26966/sets/63225
R: Reel
M: 4/4
L: 1/8
Q: 1/2=100
K: Gmaj
"G"DGBG AGBG|"G"DGBG "D"AE~E2|"G"DGBG AGAB|"C"d2ed "D"BG~G2|
"G"DGBG "D"AGBG|"G"DGBG "D"AE~E2|"G"DGBG "C"A2 A/B/c|"D"d2ed BG~G2||
"G"Bd~d2 d2 ef|"C"g2fg "D"eA~A2|"G"Bd~d2 d2 gd|"C"Bd"D"Ac "G"BG~G2|
"G"Bd~d2 d2 ef|"C"g2fg "D"eA~A2|"C"B/c/d ef gage|"D"dBAc "C"BGGE||

